X:200
T:On Board Of The 'Kangaroo'
M:4/4
L:1/4
Q:1/4=3D120
K:D
D/F/|\
AA EF|GF GA|BB cA|d2 zd|
fd dA|BA F>G|A>G E>C|D2 zF|
AA EF|GF GA|BB cA|d2 zd|
fd dA|BA FG|AG/G/ E>C|D2 FG|
AA EF|GF GA|BB cA|d2 zd/d/|
fd dA|BA FG|AG/G/ E>C|D2 z||
